symbols/fr/D-D.svg

<?xml version="1.0" encoding="UTF-8"?>
<svg xmlns="http://www.w3.org/2000/svg" xmlns:xlink="http://www.w3.org/1999/xlink" width="18.943117" height="20" viewBox="0 0 18.943117 20">
<path fill-rule="nonzero" fill="rgb(0%, 0%, 0%)" fill-opacity="1" d="M 4.777344 10.640625 L 14.132812 10.640625 L 14.132812 20 L 4.777344 20 Z M 4.777344 10.640625 "/>
<path fill-rule="nonzero" fill="rgb(0%, 0%, 0%)" fill-opacity="1" d="M 4.390625 20 L 14.554688 20 L 17.882812 13.824219 L 1.058594 13.824219 Z M 4.390625 20 "/>
<path fill-rule="nonzero" fill="rgb(0%, 0%, 0%)" fill-opacity="1" d="M 18.941406 9.472656 C 18.941406 14.703125 14.703125 18.941406 9.472656 18.941406 C 4.242188 18.941406 0 14.703125 0 9.472656 C 0 4.242188 4.242188 0 9.472656 0 C 14.703125 0 18.941406 4.242188 18.941406 9.472656 Z M 18.941406 9.472656 "/>
<path fill-rule="nonzero" fill="rgb(100%, 100%, 100%)" fill-opacity="1" d="M 18.460938 9.472656 C 18.460938 14.433594 14.433594 18.460938 9.472656 18.460938 C 4.507812 18.460938 0.484375 14.433594 0.484375 9.472656 C 0.484375 4.507812 4.507812 0.484375 9.472656 0.484375 C 14.433594 0.484375 18.460938 4.507812 18.460938 9.472656 Z M 18.460938 9.472656 "/>
<path fill-rule="nonzero" fill="rgb(0%, 0%, 0%)" fill-opacity="1" d="M 17.976562 9.472656 C 17.976562 14.167969 14.167969 17.976562 9.472656 17.976562 C 4.773438 17.976562 0.96875 14.167969 0.96875 9.472656 C 0.96875 4.773438 4.773438 0.96875 9.472656 0.96875 C 14.167969 0.96875 17.976562 4.773438 17.976562 9.472656 Z M 17.976562 9.472656 "/>
<path fill-rule="nonzero" fill="rgb(25.098039%, 25.098039%, 25.098039%)" fill-opacity="1" d="M 15.691406 6.4375 C 15.691406 7.195312 15.078125 7.808594 14.320312 7.808594 C 13.5625 7.808594 12.949219 7.195312 12.949219 6.4375 C 12.949219 5.679688 13.5625 5.066406 14.320312 5.066406 C 15.078125 5.066406 15.691406 5.679688 15.691406 6.4375 Z M 15.691406 6.4375 "/>
<path fill-rule="nonzero" fill="rgb(25.098039%, 25.098039%, 25.098039%)" fill-opacity="1" d="M 6.011719 6.4375 C 6.011719 7.195312 5.394531 7.808594 4.640625 7.808594 C 3.882812 7.808594 3.265625 7.195312 3.265625 6.4375 C 3.265625 5.679688 3.882812 5.066406 4.640625 5.066406 C 5.394531 5.066406 6.011719 5.679688 6.011719 6.4375 Z M 6.011719 6.4375 "/>
<path fill-rule="nonzero" fill="rgb(25.098039%, 25.098039%, 25.098039%)" fill-opacity="1" d="M 10.851562 8.617188 C 10.851562 9.375 10.238281 9.988281 9.480469 9.988281 C 8.722656 9.988281 8.109375 9.375 8.109375 8.617188 C 8.109375 7.859375 8.722656 7.246094 9.480469 7.246094 C 10.238281 7.246094 10.851562 7.859375 10.851562 8.617188 Z M 10.851562 8.617188 "/>
<path fill-rule="nonzero" fill="rgb(100%, 0%, 0%)" fill-opacity="1" d="M 15.691406 11.277344 C 15.691406 12.035156 15.078125 12.648438 14.320312 12.648438 C 13.5625 12.648438 12.949219 12.035156 12.949219 11.277344 C 12.949219 10.519531 13.5625 9.90625 14.320312 9.90625 C 15.078125 9.90625 15.691406 10.519531 15.691406 11.277344 Z M 15.691406 11.277344 "/>
<path fill-rule="nonzero" fill="rgb(100%, 100%, 0%)" fill-opacity="1" d="M 6.011719 11.277344 C 6.011719 12.035156 5.394531 12.648438 4.640625 12.648438 C 3.882812 12.648438 3.265625 12.035156 3.265625 11.277344 C 3.265625 10.519531 3.882812 9.90625 4.640625 9.90625 C 5.394531 9.90625 6.011719 10.519531 6.011719 11.277344 Z M 6.011719 11.277344 "/>
<path fill-rule="nonzero" fill="rgb(25.098039%, 25.098039%, 25.098039%)" fill-opacity="1" d="M 10.851562 14.828125 C 10.851562 15.585938 10.238281 16.199219 9.480469 16.199219 C 8.722656 16.199219 8.109375 15.585938 8.109375 14.828125 C 8.109375 14.070312 8.722656 13.457031 9.480469 13.457031 C 10.238281 13.457031 10.851562 14.070312 10.851562 14.828125 Z M 10.851562 14.828125 "/>
</svg>

<?xml version="1.0" encoding="UTF-8"?>
<svg version="1.1" width="18.943" height="20" viewBox="0 0 18.943 20" xmlns="http://www.w3.org/2000/svg"><g><path d="m4.7773 10.641h9.3555v9.3594h-9.3555z"/><path d="m4.3906 20h10.164l3.3281-6.1758h-16.824z"/><path d="m18.941 9.4727c0 5.2305-4.2383 9.4688-9.4688 9.4688-5.2305 0-9.4727-4.2383-9.4727-9.4688 0-5.2305 4.2422-9.4727 9.4727-9.4727 5.2305 0 9.4688 4.2422 9.4688 9.4727z"/></g><path d="m18.461 9.4727c0 4.9609-4.0273 8.9883-8.9883 8.9883-4.9648 0-8.9883-4.0273-8.9883-8.9883 0-4.9648 4.0234-8.9883 8.9883-8.9883 4.9609 0 8.9883 4.0234 8.9883 8.9883z" fill="#fff"/><path d="m17.977 9.4727c0 4.6953-3.8086 8.5039-8.5039 8.5039-4.6992 0-8.5039-3.8086-8.5039-8.5039 0-4.6992 3.8047-8.5039 8.5039-8.5039 4.6953 0 8.5039 3.8047 8.5039 8.5039z"/><g fill="#333"><path d="m15.691 6.4375c0 0.75781-0.61328 1.3711-1.3711 1.3711-0.75781 0-1.3711-0.61328-1.3711-1.3711s0.61328-1.3711 1.3711-1.3711c0.75781 0 1.3711 0.61328 1.3711 1.3711z"/><path d="m6.0117 6.4375c0 0.75781-0.61719 1.3711-1.3711 1.3711-0.75781 0-1.375-0.61328-1.375-1.3711s0.61719-1.3711 1.375-1.3711c0.75391 0 1.3711 0.61328 1.3711 1.3711z"/><path d="m10.852 8.6172c0 0.75781-0.61328 1.3711-1.3711 1.3711-0.75781 0-1.3711-0.61328-1.3711-1.3711 0-0.75781 0.61328-1.3711 1.3711-1.3711 0.75781 0 1.3711 0.61328 1.3711 1.3711z"/></g><g><path d="m15.691 11.277c0 0.75781-0.61328 1.3711-1.3711 1.3711-0.75781 0-1.3711-0.61328-1.3711-1.3711 0-0.75781 0.61328-1.3711 1.3711-1.3711 0.75781 0 1.3711 0.61328 1.3711 1.3711z" fill="#f00"/><path d="m6.0117 11.277c0 0.75781-0.61719 1.3711-1.3711 1.3711-0.75781 0-1.375-0.61328-1.375-1.3711 0-0.75781 0.61719-1.3711 1.375-1.3711 0.75391 0 1.3711 0.61328 1.3711 1.3711z" fill="#ff0"/><path d="m10.852 14.828c0 0.75781-0.61328 1.3711-1.3711 1.3711-0.75781 0-1.3711-0.61328-1.3711-1.3711s0.61328-1.3711 1.3711-1.3711c0.75781 0 1.3711 0.61328 1.3711 1.3711z" fill="#333"/></g></svg>
